X: 106
T: No_65_Song_of_the_Woodpecker.krn
N: Derived from No_65_Song_of_the_Woodpecker.krn
%%abc-version 2.0
%%abcx-abcm2ps-target-version 5.9.1 (29 Sep 2008)
%%abc-creator hum2abc beta
%%abcx-conversion-date 2019/03/15 08:35:45
%%humdrum-veritas 3528415018
%%humdrum-veritas-data 636623828
%%linebreak <none>
%%barnumbers 0
L: 1/16
M: 2/4
K: Db clef=bass
[K:clef=bass][M:2/4]z4z2 EE | 
E4E2 z E | 
E2D2 _C z EE | 
E4ED2A, | 
A,4A,4 ||  
[M:3/4]A,8A, z B,B, ||  
[M:2/4]B,4D3B, ||  
[M:3/4]A,4A,3A,A,4 ||  
[M:2/4](A,3F,) F, z A,A, ||  
[M:3/4]A,3B,A,4A,3A, ||  
[M:2/4]F,2E,2 D,2 z F, | 
E,4D,4 ||  
[M:3/4]D,8z2 E,E, ||  
[M:2/4]E,4E,3F, ||  
[M:3/4]D,4D,3D,D,4 ||  
[M:2/4](D,3B,,) B,, z D,D, ||  
[M:3/4]D,3E,D,4B,,2A,,2 | 
A,,8z4 |]  



